shader cupInner (color Cin = 1,output color resultRGB=0)
{
    color dirt=color("rgb",0.447, 0.065, 0.065);
    float fuzz=0.4;
    float s=v+sin(u*2*M_PI)*0.05+sin(u*4*M_PI)*0.03;
    float dist=abs(s-0.8);
    float inLine=1-smoothstep(0.005-fuzz,0.005+fuzz,dist);

    color pink = color("rgb", 1.000, 0.694, 0.510);

    resultRGB=mix(pink,dirt,inLine);

}