shader dispHandle (
output	float resultD=0
)
{
    float fuzz=0.1;
    float s=mod(8*u,1);
    float t=mod(4*v,1);
    point centre=point (0.5,0.5,0);
    point here=point (s,t,0);
    float dist=distance(centre,here);
    float radius=(float) noise("cell",0.1*u,0.1*v)*0.4;
    float inDisk=1-smoothstep(radius-fuzz,radius+fuzz,dist);


    resultD=noise("perlin",u*100, v*50)*0.3;
}